logos/messenger.svg

<?xml version="1.0" encoding="UTF-8"?>
<svg width="256px" height="256px" viewBox="0 0 256 256" version="1.1" xmlns="http://www.w3.org/2000/svg" preserveAspectRatio="xMidYMid">
    <title>Messenger</title>
    <defs>
        <radialGradient cx="19.2474387%" cy="99.4651948%" fx="19.2474387%" fy="99.4651948%" r="108.959789%" id="messengerGradient-1">
            <stop stop-color="#0099FF" offset="0%"></stop>
            <stop stop-color="#A033FF" offset="60.9753877%"></stop>
            <stop stop-color="#FF5280" offset="93.482299%"></stop>
            <stop stop-color="#FF7061" offset="100%"></stop>
        </radialGradient>
    </defs>
    <g>
        <path d="M128,-1.8189894e-14 C55.89376,-1.8189894e-14 0,52.81792 0,124.16 C0,161.476608 15.29344,193.722368 40.199168,215.99488 C42.28992,217.86624 43.552,220.48768 43.63776,223.29344 L44.334848,246.06208 C44.557568,253.3248 52.059392,258.05056 58.705152,255.1168 L84.11136,243.90144 C86.265088,242.95168 88.6784,242.77504 90.94784,243.39968 C102.62272,246.60992 115.048448,248.32 128,248.32 C200.10624,248.32 256,195.50208 256,124.16 C256,52.81792 200.10624,-1.8189894e-14 128,-1.8189894e-14 Z" fill="url(#messengerGradient-1)"></path>
        <path d="M51.136512,160.470016 L88.736512,100.816896 C94.71744,91.326976 107.52512,88.964096 116.4992,95.694336 L146.404352,118.123264 C149.14816,120.181504 152.923392,120.170496 155.65568,118.096896 L196.044032,87.444736 C201.43488,83.353856 208.471552,89.805056 204.864,95.529984 L167.264,155.183616 C161.28256,164.673024 148.47488,167.036416 139.501312,160.305664 L109.595392,137.876224 C106.85184,135.818496 103.076352,135.829504 100.34432,137.903104 L59.955712,168.555264 C54.56512,172.645888 47.528192,166.194688 51.136512,160.470016 Z" fill="#FFFFFF"></path>
    </g>
</svg>

<svg preserveAspectRatio="xMidYMid" viewBox="0 0 256 256" xmlns="http://www.w3.org/2000/svg">
  <defs>
    <radialGradient id="messenger_svg__a" cx="19.247%" cy="99.465%" r="108.96%" fx="19.247%" fy="99.465%">
      <stop offset="0%" stop-color="#09F"/>
      <stop offset="60.975%" stop-color="#A033FF"/>
      <stop offset="93.482%" stop-color="#FF5280"/>
      <stop offset="100%" stop-color="#FF7061"/>
    </radialGradient>
  </defs>
  <path fill="url(#messenger_svg__a)" d="M128 0C55.894 0 0 52.818 0 124.16c0 37.317 15.293 69.562 40.2 91.835 2.09 1.871 3.352 4.493 3.438 7.298l.697 22.77c.223 7.262 7.724 11.988 14.37 9.054L84.111 243.9a10.218 10.218 0 0 1 6.837-.501c11.675 3.21 24.1 4.92 37.052 4.92 72.106 0 128-52.818 128-124.16S200.106 0 128 0Z"/>
  <path fill="#FFF" d="m51.137 160.47 37.6-59.653c5.98-9.49 18.788-11.853 27.762-5.123l29.905 22.43a7.68 7.68 0 0 0 9.252-.027l40.388-30.652c5.39-4.091 12.428 2.36 8.82 8.085l-37.6 59.654c-5.981 9.489-18.79 11.852-27.763 5.122l-29.906-22.43a7.68 7.68 0 0 0-9.25.027l-40.39 30.652c-5.39 4.09-12.427-2.36-8.818-8.085Z"/>
</svg>
